svg/material-icons/keyboard_alt/materialiconstwotone/24px.svg

<svg xmlns="http://www.w3.org/2000/svg" width="24" height="24" viewBox="0 0 24 24"><path d="M3 19h18V6H3v13zM17 8h2v2h-2V8zm0 4h2v2h-2v-2zm-4-4h2v2h-2V8zm0 4h2v2h-2v-2zM9 8h2v2H9V8zm0 4h2v2H9v-2zm-1 4h8v1H8v-1zM5 8h2v2H5V8zm0 4h2v2H5v-2z" opacity=".3"/><path d="M21 4H3c-1.1 0-2 .9-2 2v13c0 1.1.9 2 2 2h18c1.1 0 2-.9 2-2V6c0-1.1-.9-2-2-2zm0 15H3V6h18v13z"/><path d="M9 8h2v2H9zM5 8h2v2H5zm3 8h8v1H8zm5-8h2v2h-2zm-4 4h2v2H9zm-4 0h2v2H5zm8 0h2v2h-2zm4-4h2v2h-2zm0 4h2v2h-2z"/></svg>

<svg xmlns="http://www.w3.org/2000/svg" enable-background="new 0 0 24 24" height="24" viewBox="0 0 24 24" width="24"><g><rect fill="none" height="24" width="24" y="0"/></g><g><g><path d="M3,19h18V6H3V19z M17,8h2v2h-2V8z M17,12h2v2h-2V12z M13,8h2v2h-2V8z M13,12h2 v2h-2V12z M9,8h2v2H9V8z M9,12h2v2H9V12z M8,16h8v1H8V16z M5,8h2v2H5V8z M5,12h2v2H5V12z" enable-background="new" opacity=".3"/><path d="M21,4H3C1.9,4,1,4.9,1,6v13c0,1.1,0.9,2,2,2h18c1.1,0,2-0.9,2-2V6C23,4.9,22.1,4,21,4z M21,19H3V6h18V19z"/><rect height="2" width="2" x="9" y="8"/><rect height="2" width="2" x="5" y="8"/><rect height="1" width="8" x="8" y="16"/><rect height="2" width="2" x="13" y="8"/><rect height="2" width="2" x="9" y="12"/><rect height="2" width="2" x="5" y="12"/><rect height="2" width="2" x="13" y="12"/><rect height="2" width="2" x="17" y="8"/><rect height="2" width="2" x="17" y="12"/></g></g></svg>
